svg_80x80/graphene.svg

<svg viewBox="0 0 80 80" xmlns="http://www.w3.org/2000/svg">
<rect width="100%" height="100%" fill="white"/>
<path fill-rule="evenodd" clip-rule="evenodd" d="M44.8656 9.61279V15.3355L21.6489 29.0686V50.9142L16.8538 53.6923V26.2321L44.8656 9.61279Z" fill="#F25F3F"/>
<path fill-rule="evenodd" clip-rule="evenodd" d="M44.7947 9.64884L39.9754 6.81482L12.0498 23.2927L16.8694 26.2862L44.7947 9.64884Z" fill="#FFAA5B"/>
<path fill-rule="evenodd" clip-rule="evenodd" d="M67.7384 50.8647L62.972 48.0707L39.8661 61.4933L21.6718 50.8647L16.8363 53.7042L35.0464 64.5485L39.8661 67.5421L67.7384 50.8647Z" fill="#FFAA5B"/>
<path fill-rule="evenodd" clip-rule="evenodd" d="M68 23.4024L63.0555 20.6516L35.1299 37.1295L39.9495 40.123L68 23.4024Z" fill="#FFAA5B"/>
<path fill-rule="evenodd" clip-rule="evenodd" d="M12 23.2968L16.8807 26.1898V53.6822L40.1431 67.3752V73.1811L12 56.3957V23.2968Z" fill="#EB1919"/>
<path fill-rule="evenodd" clip-rule="evenodd" d="M58.3588 29.1978V50.8218L63.2452 53.5994V30.2435L58.3588 29.1978Z" fill="#EB1919"/>
<path fill-rule="evenodd" clip-rule="evenodd" d="M39.9838 73.1852V67.4625L63.2004 53.5976L63.2004 31.9662L39.9838 45.7203V40.0236L67.9956 23.3887V56.5659L39.9838 73.1852Z" fill="#F25F3F"/>
<path fill-rule="evenodd" clip-rule="evenodd" d="M35.229 37.0828V42.8299L40.0089 45.6897V40.0002L35.229 37.0828Z" fill="#EB1919"/>
</svg>

<svg xmlns="http://www.w3.org/2000/svg" viewBox="0 0 80 80">
  <rect width="100%" height="100%" fill="#fff"/>
  <path fill="#F25F3F" fill-rule="evenodd" d="M44.87 9.61v5.73L21.65 29.07V50.9l-4.8 2.78V26.23L44.87 9.61Z" clip-rule="evenodd"/>
  <path fill="#FFAA5B" fill-rule="evenodd" d="M44.8 9.65 39.97 6.8 12.05 23.3l4.82 3L44.79 9.65ZM67.74 50.86l-4.77-2.79-23.1 13.42-18.2-10.63-4.83 2.84 18.2 10.85 4.83 3 27.87-16.69ZM68 23.4l-4.94-2.75-27.93 16.48 4.82 3L68 23.4Z" clip-rule="evenodd"/>
  <path fill="#EB1919" fill-rule="evenodd" d="m12 23.3 4.88 2.89v27.5l23.26 13.69v5.8L12 56.4V23.3ZM58.36 29.2v21.62l4.89 2.78V30.24l-4.9-1.04Z" clip-rule="evenodd"/>
  <path fill="#F25F3F" fill-rule="evenodd" d="M39.98 73.19v-5.73L63.2 53.6V31.97L39.98 45.72v-5.7L68 23.4v33.18L39.98 73.19Z" clip-rule="evenodd"/>
  <path fill="#EB1919" fill-rule="evenodd" d="M35.23 37.08v5.75L40 45.69V40l-4.78-2.92Z" clip-rule="evenodd"/>
</svg>
